X:1
T:Funeral of Queen Mary
T:A Clockwork Orange (Funeral of Queen Mary)
%%score { 1 | 2 }
L:1/8
Q:1/4=114
M:4/4
K:C
V:1 treble nm="Piano" snm="Pno."
V:2 bass 
V:1
"^Moderato" [^CE]6 E2 | [DF]3 E/F/ G/F/G/F/ G/F/E/F/ | [^CE]8- | [CE]8 | [CE]6 E2 | [CA]4 [DA]3 B | %6
 [E^G]8- | [E^G]8 | [EGB]8 | [C^FA]4 [^D^F]4 | [B,EG]8- | [B,EG]8 | [CE]8 | [CEG]8 | %14
 [A,DF]4 [B,F]4 | [G,CE]8- | [G,CE]8 | [CEA]8 | [B,FA]4 [B,E^G]4 | [^CE]6 E2 | [DF]3 E/F/ [DG]4 | %21
 [^CE]8- | [CE]8 | [^CE]6 E2 | [DF]3 E/F/ G/F/G/F/ G/F/E/F/ | [^ce]8- | [ce]8 | [CE]8 | [CA]8 | %29
 [E^G]8- | [EG]8 | [CEA]8- | [CEA]8 |] %33
V:2
 [G,,G,]8 | [D,,D,]8 | [A,,A,]4 A,2 A,,2 | [A,,A,]2 [E,,E,]2 [F,,F,]4 | [A,,A,]8 | %5
 [F,,F,]4 [F,,F,]4 | [E,,E,]4 E,2 [E,,E,]2 | [E,,E,]2 E,E,, [B,,,B,,]4 | [C,,C,]8 | %9
 [A,,A,]4 [B,,B,]4 | [E,,E,]8 | [B,,,B,,][E,,E,] [B,,,B,,]6- | [B,,,B,,]2 [A,,,A,,]2 [A,,,A,,]4 | %13
 [C,,C,]8 | [F,,F,]4 [G,,G,]4 | [C,,C,]4 [C,,C,]2 [C,,C,][C,,C,] | [G,,,G,,]2 [C,,C,]2 [G,,,G,,]4 | %17
 [A,,A,]8 | [C,,D,]4 [D,,E,]4 | [A,,A,]8 | [C,,D,]8 | [G,,G,]8 | [G,,G,]4 [E,,E,]4 | [G,,G,]8 | %24
 [D,,D,]8 | [G,,A,]8 | [G,,A,]/[G,,A,]/[G,,A,] [E,,E,]6 | [A,,A,]8 | [F,,F,]8 | %29
 [E,,E,]2 [F,,F,]2 [E,,E,]2 [F,,F,]2 | [E,,E,]8 | [A,,A,]6 [A,,A,]2 | [A,,,E,,A,,]8 |] %33

